X:92
T: RINGEL RINGEL ROSENKRANZ
N: K2068
O: Europa, Mitteleuropa, Deutschland, Thueringen
R: Kinder - Lied, Reigen, Tanz - Spiel
M: 2/4
L: 1/8
K: F
 | ccdd | ccA2 |
ccdd | ccA2 |
ccdd | c2Az |
ccAA | ccAA |
ccdd | ccAA | z
ccc | f4

@@@ Tune index: 7429
